X:1
T:Title
%%score 1 2 3
L:1/8
Q:1/4=180
M:4/4
K:G
V:1 treble nm="Picked Bass, Track 2"
V:2 treble nm="Picked Bass, Melody"
V:3 bass nm="Picked Bass, Baritone Voice"
V:1
 G8 | B4 B4 | A6 G2 | B4 e4 | d8 | z4 g4 | e3 d B2 A2 | B6 d2 | e6 d2 | d8 | z4 G4 | B4 B4 | %12
w: Track~2||||||||||||
 [Ge]4 B2 d2 | d3 c B2 A2 | B8 | z4 G2 A2 | B2 A2 A4 | B4 B2 B2 | A3 B d2 d2 | e4 d4 | [Bd]8 | %21
w: |||||||||
 z4 G4 | B4 B4 | [Ge]4 B2 d2 | d3 c B2 A2 | B8 | z4 G2 A2 | B2 A2 A4 | B4 B2 B2 | A3 B d2 d2 | %30
w: |||||||||
 e4 d4 | [Bd]8 |] %32
w: ||
V:2
 G,8 | D4 D4 | E6 D2 | B,4 A,4 | G,8 | z4[K:treble] D4 | E3 F G2 E2 | D6[K:bass] B,A, | %8
w: Track~1||||||||
 G,3 A, G,2 B,2 | A,8 | z4[K:treble] D4 | E4 E3 D | B,4 D2[K:bass] B,2 | G,3 A, B,A,G,B, | D8 | %15
w: |||||||
 z4 G,2 A,2 | B,2 A,2 A,4 | D4 D2 D2 | E3 F G2[K:bass] ED | B,4 A,4 | G,8 | z4[K:treble] D4 | %22
w: |||||||
 E4 E3 D | B,4 D2[K:bass] B,2 | G,3 A, B,A,G,B, | D8 | z4 G,2 A,2 | B,2 A,2 A,4 | D4 D2 D2 | %29
w: |||||||
 E3 F G2[K:bass] ED | B,4 A,4 | G,8 |] %32
w: |||
V:3
 G,8 | G,4 D,4 | E,6 D,2 | E,4 A,4 | G,8 | z4 G,4 | [E,B,]6 A,2 | D,6 D,2 | E,3 F, E,2 B,,2 | D,8 | %10
w: Baritone~Voice||||||||||
 z4 G,4 | E,4 E,4 | E,4 G,2 E,2 | D,3 E, D,2 E,D, | [B,,G,]8 | z4 (3:2:2G,/8G,/4-G,3/4-G, A,2 | %16
w: ||||||
 B,2 A,2 A,4 | G,4 D,2 D,2 | E,3 F, G,2 D,2 | E,4 D,4 | [G,,G,]8 | z4 G,4 | E,4 E,4 | E,4 G,2 E,2 | %24
w: ||||||||
 D,3 E, D,2 E,D, | [B,,G,]8 | z4 (3:2:2G,/8G,/4-G,3/4-G, A,2 | B,2 A,2 A,4 | G,4 D,2 D,2 | %29
w: |||||
 E,3 F, G,2 D,2 | E,4 D,4 | [G,,G,]8 |] %32
w: |||

